X:1
T:Chiesa, 77.87
T:Chiesa, 77.87
T:Theodore Edson Perkins, 1875
T:Public Domain Courtesy of the Cyber Hymnal™
C:Theodore Edson Perkins, 1875
Z:Public Domain
Z:Courtesy of the Cyber Hymnal™
%%score ( 1 2 ) 3
L:1/8
Q:1/4=108
M:6/8
K:A
V:1 treble 
V:2 treble 
V:3 bass 
V:1
 [Ec]3 [DB]2 [CA] | [FB]2 [FA] [EG]2 [DF] | E3 [CA]2 [EA] | [EG]2 [EA] [Ec]2 [EB] | %4
 [Ec]3 [FA]2 [DF] | [CE]6 | [Ec]3 [FA]2 [DF] | [CE]3- [CE]2 E | [DF]2 [EG] [EA]2 [Ec] | %9
 [DB]3 [CA]3 |] %10
V:2
 x6 | x6 | E3 x3 | x6 | x6 | x6 | x6 | x5 E | x6 | x6 |] %10
V:3
 [A,,A,]3 [A,,A,]2 [A,,A,] | [D,A,]2 [D,A,] [D,A,]2 [D,A,] | [C,A,]3 [A,,A,]2 [C,A,] | %3
 [B,,D]2 [A,,C] [E,A,]2 [E,G,] | [A,,A,]3 [D,A,]2 [D,A,] | [A,,A,]6 | [A,,A,]3 [D,A,]2 [D,A,] | %7
 [A,,A,]3- [A,,A,]2 [C,A,] | [D,A,]2 [D,B,] [C,A,]2 [A,,A,] | [E,G,]3 [A,,A,]3 |] %10

